img/cab-section__05.svg

<svg width="36" height="38" viewBox="0 0 36 38" fill="none" xmlns="http://www.w3.org/2000/svg">
<path d="M35.498 8.3846L18.2445 0.0553301C18.0916 -0.0184434 17.9134 -0.0184434 17.7606 0.0553301L0.506996 8.3846C0.314621 8.47745 0.192383 8.67228 0.192383 8.88588V29.1141C0.192383 29.3277 0.314621 29.5225 0.506996 29.6154L17.7605 37.9447C17.8369 37.9816 17.9198 38 18.0025 38C18.0853 38 18.168 37.9816 18.2445 37.9447L35.498 29.6154C35.6904 29.5225 35.8126 29.3277 35.8126 29.1141V8.88595C35.8126 8.6722 35.6903 8.47753 35.498 8.3846ZM18.0025 1.17477L33.9756 8.88588L29.3454 11.1212C29.316 11.0989 29.2851 11.0782 29.2511 11.0618L13.3865 3.40319L18.0025 1.17477ZM12.1294 4.03256L28.0793 11.7325L24.8125 13.3095L8.86922 5.61276L12.1294 4.03256ZM28.4524 12.7884V18.618L25.4011 20.0911V14.2615L28.4524 12.7884ZM34.6993 28.7648L18.5591 36.5565V17.5645L22.4091 15.7059C22.6859 15.5722 22.802 15.2395 22.6683 14.9626C22.5347 14.6859 22.202 14.5696 21.925 14.7034L18.0025 16.5971L16.4591 15.8519C16.1821 15.7181 15.8494 15.8343 15.7158 16.1111C15.5821 16.388 15.6982 16.7208 15.975 16.8544L17.4459 17.5645V36.5565L1.30566 28.7647V9.77272L13.5963 15.7061C13.6743 15.7438 13.7568 15.7617 13.8379 15.7617C14.0448 15.7617 14.2436 15.6457 14.3395 15.4469C14.4732 15.1701 14.3571 14.8373 14.0803 14.7036L2.02937 8.88588L7.55904 6.21638L24.2801 14.2886C24.2825 14.292 24.2853 14.2951 24.2878 14.2984V20.978C24.2878 21.1696 24.3863 21.3476 24.5485 21.4496C24.6386 21.5061 24.7414 21.5347 24.8445 21.5347C24.927 21.5347 25.0098 21.5163 25.0865 21.4793L29.2511 19.4688C29.4435 19.376 29.5657 19.1812 29.5657 18.9675V12.2511L34.6993 9.77279V28.7648Z" fill="white"/>
<path d="M5.89838 26.6055L3.36641 25.3832C3.08942 25.2494 2.75677 25.3656 2.6231 25.6424C2.48944 25.9193 2.60551 26.2521 2.88235 26.3857L5.41433 27.608C5.49233 27.6457 5.57479 27.6635 5.65591 27.6635C5.86283 27.6635 6.06159 27.5476 6.15755 27.3488C6.2913 27.0719 6.17522 26.7392 5.89838 26.6055Z" fill="white"/>
<path d="M8.22491 25.0889L3.36618 22.7433C3.08927 22.6097 2.75655 22.7257 2.62288 23.0026C2.48929 23.2795 2.60537 23.6123 2.8822 23.7459L7.74093 26.0916C7.81894 26.1292 7.90139 26.1471 7.98251 26.1471C8.18944 26.1471 8.38819 26.0311 8.48416 25.8323C8.61783 25.5553 8.50175 25.2225 8.22491 25.0889Z" fill="white"/>
</svg>

<svg width="36" height="38" fill="none" xmlns="http://www.w3.org/2000/svg"><path d="M35.498 8.385L18.245.055a.557.557 0 00-.484 0L.507 8.385a.557.557 0 00-.315.5v20.23c0 .213.123.408.315.5l17.253 8.33a.557.557 0 00.484 0l17.254-8.33a.557.557 0 00.315-.5V8.885a.557.557 0 00-.315-.501zm-17.495-7.21l15.973 7.71-4.63 2.236a.558.558 0 00-.095-.06L13.386 3.404l4.617-2.228zm-5.874 2.858l15.95 7.7-3.267 1.576L8.87 5.614l3.26-1.58zm16.323 8.755v5.83l-3.05 1.473v-5.83l3.05-1.473zM34.7 28.765l-16.14 7.791v-18.99l3.85-1.86a.557.557 0 10-.484-1.002l-3.922 1.894-1.544-.745a.556.556 0 10-.484 1.002l1.47.71v18.992l-16.14-7.791V9.773l12.291 5.933a.554.554 0 00.743-.26.557.557 0 00-.259-.742L2.03 8.886l5.529-2.67L24.28 14.29l.008.01v6.679a.557.557 0 00.799.501l4.164-2.01a.556.556 0 00.315-.502v-6.716l5.133-2.478v18.992z" fill="#fff"/><path d="M5.898 26.605l-2.532-1.222a.557.557 0 10-.484 1.003l2.532 1.222a.554.554 0 00.744-.26.557.557 0 00-.26-.742zm2.327-1.516l-4.859-2.346a.557.557 0 10-.484 1.003l4.859 2.346a.555.555 0 00.743-.26.557.557 0 00-.26-.743z" fill="#fff"/></svg>
